src/svg/mortar-board.svg

<svg height="16" width="16" xmlns="http://www.w3.org/2000/svg" viewBox="0 0 16 16">
  <path d="M7.83 9.19l-3.83-1.19s0 1.5 0 2.5 1.8 1.5 4 1.5 4-0.5 4-1.5 0-2.5 0-2.5l-3.83 1.19c-0.11 0.03-0.23 0.03-0.36 0h0.02z m0.28-6.39c-0.06-0.02-0.14-0.02-0.2 0l-7.64 2.38c-0.33 0.11-0.33 0.56 0 0.67l1.73 0.55v1.77c-0.3 0.17-0.5 0.5-0.5 0.86 0 0.19 0.05 0.36 0.14 0.5-0.08 0.14-0.14 0.31-0.14 0.5v2.58c0 0.55 2 0.55 2 0v-2.58c0-0.19-0.05-0.36-0.14-0.5 0.08-0.14 0.14-0.31 0.14-0.5 0-0.38-0.2-0.69-0.5-0.86v-1.45l4.89 1.53c0.06 0.02 0.14 0.02 0.2 0l7.64-2.38c0.33-0.11 0.33-0.56 0-0.67l-7.63-2.39z m-0.09 3.2c-0.55 0-1-0.22-1-0.5s0.45-0.5 1-0.5 1 0.22 1 0.5-0.45 0.5-1 0.5z" />
</svg>

<?xml version="1.0" encoding="UTF-8" standalone="no"?>
<svg width="16px" height="16px" viewBox="0 0 16 16" version="1.1" xmlns="http://www.w3.org/2000/svg" xmlns:xlink="http://www.w3.org/1999/xlink">
    <!-- Generator: Sketch 3.7.1 (28215) - http://www.bohemiancoding.com/sketch -->
    <title>mortar-board</title>
    <desc>Created with Sketch.</desc>
    <defs></defs>
    <g id="Octicons" stroke="none" stroke-width="1" fill="none" fill-rule="evenodd">
        <g id="mortar-board" fill="#000000">
            <path d="M7.83,9.19 L4,8 C8.8817842e-16,1.33226763e-15 4,9.5 4,10.5 C4,11.5 5.8,12 8,12 C10.2,12 12,11.5 12,10.5 L12,8 L8.17,9.19 C8.06,9.22 7.94,9.22 7.81,9.19 L7.83,9.19 L7.83,9.19 Z M8.11,2.8 C8.05,2.78 7.97,2.78 7.91,2.8 L0.27,5.18 C-0.06,5.29 -0.06,5.74 0.27,5.85 L2,6.4 L2,8.17 C1.7,8.34 1.5,8.67 1.5,9.03 C1.5,9.22 1.55,9.39 1.64,9.53 C1.56,9.67 1.5,9.84 1.5,10.03 L1.5,12.61 C1.5,13.16 3.5,13.16 3.5,12.61 L3.5,10.03 C3.5,9.84 3.45,9.67 3.36,9.53 C3.44,9.39 3.5,9.22 3.5,9.03 C3.5,8.65 3.3,8.34 3,8.17 L3,6.72 L7.89,8.25 C7.95,8.27 8.03,8.27 8.09,8.25 L15.73,5.87 C16.06,5.76 16.06,5.31 15.73,5.2 L8.1,2.81 L8.11,2.8 Z M8.02,6 C7.47,6 7.02,5.78 7.02,5.5 C7.02,5.22 7.47,5 8.02,5 C8.57,5 9.02,5.22 9.02,5.5 C9.02,5.78 8.57,6 8.02,6 L8.02,6 Z" id="Shape"></path>
        </g>
    </g>
</svg>
